Dominus_Dark_Funeral/scalable/apps/vmware-player.svg

<?xml version="1.0" encoding="UTF-8" standalone="no"?><svg xmlns:dc="http://purl.org/dc/elements/1.1/" xmlns:cc="http://creativecommons.org/ns#" xmlns:rdf="http://www.w3.org/1999/02/22-rdf-syntax-ns#" xmlns="http://www.w3.org/2000/svg" xmlns:xlink="http://www.w3.org/1999/xlink" width="48" height="48" viewBox="0 0 12.7 12.7"><metadata><rdf:RDF><cc:Work><dc:format>image/svg+xml</dc:format><dc:type rdf:resource="http://purl.org/dc/dcmitype/StillImage"/><dc:title/></cc:Work></rdf:RDF></metadata><defs><linearGradient id="d"><stop offset="0" stop-color="#2a7fff"/><stop offset="1" stop-color="#afe9dd"/></linearGradient><linearGradient id="c"><stop offset="0"/><stop offset="1" stop-color="#010000" stop-opacity="0"/></linearGradient><linearGradient id="a"><stop offset="0" stop-color="#000003"/><stop offset="1" stop-color="#00000a" stop-opacity="0"/></linearGradient><linearGradient id="b"><stop offset="0" stop-color="#000004"/><stop offset="1" stop-opacity="0"/></linearGradient><linearGradient xlink:href="#c" id="f" gradientUnits="userSpaceOnUse" x1="1.59" y1=".88" x2="14.58" y2="10.29"/><linearGradient xlink:href="#d" id="e" x1="11.58" y1="1.96" x2="1.25" y2="9.35" gradientUnits="userSpaceOnUse"/></defs><path d="M10.04.97A6.75 6.75 0 0 0 6.35.1C4.81.1 3.57.4 2.66.97A3.67 3.67 0 0 0 1 4.22c0 1.91 1.54 4.47 2.01 5.2.54.85 1.13 1.61 1.65 2.16.68.7 1.21 1.03 1.69 1.03s1.01-.33 1.69-1.03a15.2 15.2 0 0 0 1.65-2.15c.47-.74 2-3.3 2-5.21 0-1.42-.57-2.54-1.65-3.25z" fill="url(#e)"/><path d="M8.9 10.45c.27-.35.53-.62.79-1.02.23-.37.73-1.2 1.18-2.17.22-.48.42-1 .57-1.52a4.63 4.63 0 0 0 .14-2.52c0-.06-.03-.1-.05-.15L9.8 1.32l-1.63.29-.72.34.89.88-.83.74-2.24-2.25-2.04.48-.31 1.87L5 5.76l-.21.57z" opacity=".5" fill="url(#f)"/><path d="M1.04 3.9c0 .1-.04.2-.04.32 0 1.91 1.54 4.47 2.01 5.2.54.85 1.13 1.61 1.65 2.16.68.7 1.21 1.03 1.69 1.03s1.01-.33 1.69-1.03a15.2 15.2 0 0 0 1.65-2.15c.47-.74 2-3.3 2-5.21 0-.11-.02-.21-.03-.32a5.5 5.5 0 0 1-.21 1.3c-.15.53-.36 1.05-.58 1.53-.44.97-.95 1.8-1.18 2.17a15.2 15.2 0 0 1-1.65 2.15 4.9 4.9 0 0 1-.92.78c-.28.17-.53.25-.77.25s-.5-.08-.77-.25a4.76 4.76 0 0 1-.92-.78A14.41 14.41 0 0 1 3.01 8.9a19.2 19.2 0 0 1-1.18-2.17c-.22-.48-.43-1-.58-1.52a5.66 5.66 0 0 1-.21-1.31z" opacity=".5"/><path d="M2.91 1.32v2.35h.63V2.39l1.25 1.25v.81h.62v-.63h.63V3.2h-.81L3.98 1.95h1.28v-.63zm4.53 0v.63h1.28L7.47 3.2h-.8v.62h.62v.63h.62v-.81l1.25-1.25v1.28h.63V1.32h-.63zM4.8 5.08v1.25h1.25V5.7H5.4v-.62zm2.5 0v.62h-.63v.63h.81l1.25 1.25H7.44v.62H9.8V5.86h-.63v1.27L7.91 5.9v-.81z" color="#000" fill="#fed844"/></svg>

<?xml version="1.0" encoding="UTF-8" standalone="no"?>
<svg
   xmlns:dc="http://purl.org/dc/elements/1.1/"
   xmlns:cc="http://creativecommons.org/ns#"
   xmlns:rdf="http://www.w3.org/1999/02/22-rdf-syntax-ns#"
   xmlns:svg="http://www.w3.org/2000/svg"
   xmlns="http://www.w3.org/2000/svg"
   xmlns:xlink="http://www.w3.org/1999/xlink"
   xmlns:sodipodi="http://sodipodi.sourceforge.net/DTD/sodipodi-0.dtd"
   xmlns:inkscape="http://www.inkscape.org/namespaces/inkscape"
   width="48"
   height="48"
   viewBox="0 0 12.7 12.7"
   version="1.1"
   id="svg36"
   sodipodi:docname="vmware-player.svg"
   inkscape:version="0.92.4 (5da689c313, 2019-01-14)">
  <sodipodi:namedview
     pagecolor="#ffffff"
     bordercolor="#666666"
     borderopacity="1"
     objecttolerance="10"
     gridtolerance="10"
     guidetolerance="10"
     inkscape:pageopacity="0"
     inkscape:pageshadow="2"
     inkscape:window-width="1112"
     inkscape:window-height="480"
     id="namedview38"
     showgrid="false"
     inkscape:zoom="4.9166667"
     inkscape:cx="2.1355932"
     inkscape:cy="24"
     inkscape:window-x="0"
     inkscape:window-y="25"
     inkscape:window-maximized="0"
     inkscape:current-layer="svg36" />
  <metadata
     id="metadata2">
    <rdf:RDF>
      <cc:Work>
        <dc:format>image/svg+xml</dc:format>
        <dc:type
           rdf:resource="http://purl.org/dc/dcmitype/StillImage" />
        <dc:title></dc:title>
      </cc:Work>
    </rdf:RDF>
  </metadata>
  <defs
     id="defs26">
    <linearGradient
       id="d">
      <stop
         offset="0"
         stop-color="#2a7fff"
         id="stop4" />
      <stop
         offset="1"
         stop-color="#afe9dd"
         id="stop6" />
    </linearGradient>
    <linearGradient
       id="c">
      <stop
         offset="0"
         id="stop9" />
      <stop
         offset="1"
         stop-color="#010000"
         stop-opacity="0"
         id="stop11" />
    </linearGradient>
    <linearGradient
       id="a">
      <stop
         offset="0"
         stop-color="#000003"
         id="stop14" />
      <stop
         offset="1"
         stop-color="#00000a"
         stop-opacity="0"
         id="stop16" />
    </linearGradient>
    <linearGradient
       id="b">
      <stop
         offset="0"
         stop-color="#000004"
         id="stop19" />
      <stop
         offset="1"
         stop-opacity="0"
         id="stop21" />
    </linearGradient>
    <linearGradient
       xlink:href="#c"
       id="f"
       gradientUnits="userSpaceOnUse"
       x1="1.59"
       y1=".88"
       x2="14.58"
       y2="10.29" />
    <linearGradient
       xlink:href="#d"
       id="e"
       x1="11.58"
       y1="1.96"
       x2="1.25"
       y2="9.35"
       gradientUnits="userSpaceOnUse" />
  </defs>
  <path
     d="M 10.04,0.97 A 6.75,6.75 0 0 0 6.35,0.1 C 4.81,0.1 3.57,0.4 2.66,0.97 A 3.67,3.67 0 0 0 1,4.22 c 0,1.91 1.54,4.47 2.01,5.2 0.54,0.85 1.13,1.61 1.65,2.16 0.68,0.7 1.21,1.03 1.69,1.03 0.48,0 1.01,-0.33 1.69,-1.03 A 15.2,15.2 0 0 0 9.69,9.43 c 0.47,-0.74 2,-3.3 2,-5.21 0,-1.42 -0.57,-2.54 -1.65,-3.25 z"
     id="path28"
     style="fill:url(#e)"
     inkscape:connector-curvature="0" />
  <path
     d="M 8.9,10.45 C 9.17,10.1 9.43,9.83 9.69,9.43 c 0.23,-0.37 0.73,-1.2 1.18,-2.17 0.22,-0.48 0.42,-1 0.57,-1.52 a 4.63,4.63 0 0 0 0.14,-2.52 c 0,-0.06 -0.03,-0.1 -0.05,-0.15 L 9.8,1.32 8.17,1.61 7.45,1.95 8.34,2.83 7.51,3.57 5.27,1.32 3.23,1.8 2.92,3.67 5,5.76 4.79,6.33 Z"
     id="path30"
     style="opacity:0.5;fill:url(#f)"
     inkscape:connector-curvature="0" />
  <path
     d="M 1.04,3.9 C 1.04,4 1,4.1 1,4.22 c 0,1.91 1.54,4.47 2.01,5.2 0.54,0.85 1.13,1.61 1.65,2.16 0.68,0.7 1.21,1.03 1.69,1.03 0.48,0 1.01,-0.33 1.69,-1.03 A 15.2,15.2 0 0 0 9.69,9.43 c 0.47,-0.74 2,-3.3 2,-5.21 0,-0.11 -0.02,-0.21 -0.03,-0.32 A 5.5,5.5 0 0 1 11.45,5.2 C 11.3,5.73 11.09,6.25 10.87,6.73 10.43,7.7 9.92,8.53 9.69,8.9 A 15.2,15.2 0 0 1 8.04,11.05 4.9,4.9 0 0 1 7.12,11.83 C 6.84,12 6.59,12.08 6.35,12.08 6.11,12.08 5.85,12 5.58,11.83 A 4.76,4.76 0 0 1 4.66,11.05 14.41,14.41 0 0 1 3.01,8.9 19.2,19.2 0 0 1 1.83,6.73 C 1.61,6.25 1.4,5.73 1.25,5.21 A 5.66,5.66 0 0 1 1.04,3.9 Z"
     id="path32"
     inkscape:connector-curvature="0"
     style="opacity:0.5" />
  <path
     d="M 2.91,1.32 V 3.67 H 3.54 V 2.39 L 4.79,3.64 V 4.45 H 5.41 V 3.82 H 6.04 V 3.2 H 5.23 L 3.98,1.95 H 5.26 V 1.32 Z m 4.53,0 V 1.95 H 8.72 L 7.47,3.2 H 6.67 V 3.82 H 7.29 V 4.45 H 7.91 V 3.64 L 9.16,2.39 V 3.67 H 9.79 V 1.32 H 9.16 Z M 4.8,5.08 V 6.33 H 6.05 V 5.7 H 5.4 V 5.08 Z m 2.5,0 V 5.7 H 6.67 V 6.33 H 7.48 L 8.73,7.58 H 7.44 V 8.2 H 9.8 V 5.86 H 9.17 V 7.13 L 7.91,5.9 V 5.09 Z"
     id="path34"
     inkscape:connector-curvature="0"
     style="color:#000000;fill:#fed844" />
</svg>
